icon-themes/sifr_svg/cmd/lc_thesaurus.svg

<svg viewBox="0 0 24 24" xmlns="http://www.w3.org/2000/svg"><g fill="#555753"><path d="m6.5 1c-1.930711-.00000271-3.496768 1.5634326-3.5 3.4941406v.0058594 16.5c0 1.108.892 2 2 2h16.304688v-17h-1.304688v-2h-1v-3h-.464844-1.535156zm0 2h10.5v1h-11v1h11 1v1h-11.5v-.0058594c-.846866-.0629015-1.49944-.7129272-1.5-1.4941406.00056-.7812134.653134-1.4312379 1.5-1.4941406zm-1.5 5h14v13h-14zm2 4v1h3v1h-2.5c-.8284271 0-1.5.671573-1.5 1.5s.6715729 1.5 1.5 1.5h3.5v-4c0-.552285-.447715-1-1-1zm6 0v1h3.292969l-3.292969 3.292969v.707031h5v-1h-3.292969l3.292969-3.292969v-.707031h-.707031zm-5.5 3h2.5v1h-2.5c-.2761424 0-.5-.223858-.5-.5s.2238576-.5.5-.5z"/><circle cx="11" cy="10" opacity=".35" r="0"/></g></svg>

<svg xmlns="http://www.w3.org/2000/svg" viewBox="0 0 24 24">
  <path
     style="fill:#555753"
     d="M 6.5 1 C 4.569289 0.99999729 3.003232 2.5634326 3 4.4941406 L 3 4.5 L 3 21 C 3 22.108 3.892 23 5 23 L 21.304688 23 L 21.304688 6 L 20 6 L 20 4 L 19 4 L 19 1 L 18.535156 1 L 17 1 L 6.5 1 z M 6.5 3 L 17 3 L 17 4 L 6 4 L 6 5 L 17 5 L 18 5 L 18 6 L 6.5 6 L 6.5 5.9941406 C 5.653134 5.9312391 5.00056 5.2812134 5 4.5 C 5.00056 3.7187866 5.653134 3.0687621 6.5 3.0058594 L 6.5 3 z M 5 8 L 19 8 L 19 21 L 5 21 L 5 8 z M 7 12 L 7 13 L 10 13 L 10 14 L 7.5 14 C 6.6715729 14 6 14.671573 6 15.5 C 6 16.328427 6.6715729 17 7.5 17 L 11 17 L 11 13 C 11 12.447715 10.552285 12 10 12 L 7 12 z M 13 12 L 13 13 L 16.292969 13 L 13 16.292969 L 13 17 L 18 17 L 18 16 L 14.707031 16 L 18 12.707031 L 18 12 L 17.292969 12 L 13 12 z M 7.5 15 L 10 15 L 10 16 L 7.5 16 C 7.2238576 16 7 15.776142 7 15.5 C 7 15.223858 7.2238576 15 7.5 15 z "
     />
  <circle
     r="0"
     cy="10"
     cx="11"
     style="opacity:0.35;fill:#555753"
     />
</svg>
